packages/dnb-ui-lib/assets/icons/arrow_down_medium.svg

<svg width="24" height="24" viewBox="0 0 24 24" fill="none" xmlns="http://www.w3.org/2000/svg">
<path d="M5.03033 14.0947C4.73744 13.8018 4.26256 13.8018 3.96967 14.0947C3.67678 14.3876 3.67678 14.8624 3.96967 15.1553L5.03033 14.0947ZM12 22.125L11.4697 22.6553C11.7626 22.9482 12.2374 22.9482 12.5303 22.6553L12 22.125ZM20.0303 15.1553C20.3232 14.8624 20.3232 14.3876 20.0303 14.0947C19.7374 13.8018 19.2626 13.8018 18.9697 14.0947L20.0303 15.1553ZM12.75 1.875C12.75 1.46079 12.4142 1.125 12 1.125C11.5858 1.125 11.25 1.46079 11.25 1.875H12.75ZM3.96967 15.1553L11.4697 22.6553L12.5303 21.5947L5.03033 14.0947L3.96967 15.1553ZM12.5303 22.6553L20.0303 15.1553L18.9697 14.0947L11.4697 21.5947L12.5303 22.6553ZM11.25 1.875V22.125H12.75V1.875H11.25Z" fill="black"/>
</svg>

<svg width="24" height="24" viewBox="0 0 24 24" fill="none" xmlns="http://www.w3.org/2000/svg"><path d="M5.03 14.095a.75.75 0 00-1.06 1.06l1.06-1.06zm6.97 8.03l-.53.53a.75.75 0 001.06 0l-.53-.53zm8.03-6.97a.75.75 0 10-1.06-1.06l1.06 1.06zm-7.28-13.28a.75.75 0 00-1.5 0h1.5zm-8.78 13.28l7.5 7.5 1.06-1.06-7.5-7.5-1.06 1.06zm8.56 7.5l7.5-7.5-1.06-1.06-7.5 7.5 1.06 1.06zm-1.28-20.78v20.25h1.5V1.875h-1.5z" fill="#000"/></svg>
